X:6
T:K.V. 487/6
M:3/4
L:1/16
K:D minor
V:1
+f+ F12 | B12 | (A2c2) (f2e2) (d2c2) | (c2=B2) _B8 | (Ac)BA Bcde fedc | (c2=B2) _B8 | AFGA Bcde fgab | c'4 z4 G4 | A2fd c4 =B4 | c4 z4 z4 ::
V:2
z4 +f+ A,4 F,4 | z4 C4 E4 | F4 z4 z4 | z2 G2 E2G2 C2E2 | F4 F,4 z4 | z2 G2 E2G2 C2E2 | F4 z4 F,4 | E,4 z4 E4 | F4 G4 G4 | C4 C,4 z4 ::
V:1
c12 | =B4 _B8 | A4 _A8 | (c2_A2G4) z4 | c2de fgag fedc | B2cd efgf edcB | A2Bc defe dcBA | (c2A2) G2B2 A2G2 | F4 z2 F2 G2A2 | (c2=B2) _B8 | (Ac)BA Bcde fedc | (c2=B2) _B8 | (Ac)BA Bcde fgab | c'4 z4 c4 | d2ef F4 (A2G2) | F4 z4 z4 ::
V:2
z4 E4 ^F4 | G4 D4 E4 | F8 =B,4 | C4 z2 C2 C,2C2 | C,4 z4 A4 | A4 G8 | G4 F8 | (A2F2) C4 z4 | F,4 A,4 F,4 | C,4 z2 C2 D2E2 | F4 z4 z4 | z2 G2 E2G2 C2E2 | F4 z4 z4 | A,4 z4 A,,4 | B,,4 C,4 C,4 | F,4 F,,4 z4 ::
V:1
[K:Bb major] +p+ B4 B4 B4 | (B2A2) A8 | AGFG ABcd e2A2 | (c2B2) B8 | (d2c2) B2A2 G2AB | (c2B2) A2G2 .F.A.c.f | .a.f.c.A F4 G2>A2 | F4 z2 +p+ F2 G2A2 ::
V:2
+p+ D4 D4 D4 | (D2_E2) E8 | _E4 E4 E4 | (_E2D2) D8 | +mf+ (B2A2) G2F2 E2FG | (A2G2) F2C2 A,4 | z4 C4 C,4 | F,A,CA, F,4 z4 ::
V:1
(B4A4_A4 | +<(+ G6A2B2=B2 +<)+ ) | c4 (3g2f2e2 (3d2c2B2 | (B4A4) z4 | +p+ B4 B4 B4 | (B2A2) A8 | +<(+ AGFG ABcd e2A2 +<)+ | (c2=B2) B8 | cd=ef g2G2 G2A2 | Bcde f2d2 B2F2 | G2ec B4 A4 | (A4B4) z4 :|]
V:2
z4 z4 D4 | (_E2F2) +<(+ G4 F4 +<)+ | _E8 =E4 | F4 (3c2B2A2 (3G2F2_E2 | D4 D4 D4 | (D2_E2) E8 | +<(+ _E4 E4 E4 | D2 +<)+ _A4 G4 F2 | E4 _E8 | D4 z4 D4 | _E4 F4 F4 | (F4D4) z4 :|]

